X: 1329
T: An Páistín Fionn
R: jig
M: 6/8
K: Dmajor
A2d dcd|fed efe|ded dAB|=c2B AFG|
A2d dcd|fed efe|dcA GEA|D3 D3||
FGA dAA|BGG AFD|FGA cde|d3 d2D|
FGA cAG|def gfe|dcA GEA|D3 D3||

